X: 6866
T: Charlie Over The Water
R: jig
M: 6/8
K: Dmajor
F2A ABc|ded d2A|~B3 BAB|gfe fdB|
F2A ABc|ded d2c|~B3 BAA|Adf e2d:|
|:f2a afa|afa e2d|f2a agf|ded e2d|
f2a afa|afa e2d|ded dcB|Adf e2d:|

